!!!!SEGMENT: pl-wn--sd-xvi-qu-273--001-143_gomolka-mikolaj--melodiae-na-psalterz-polski-cxlii-pana-wolam-pana-prosze.krn
!!!cenid: 15xx:565
!!!COM: Gomółka, Mikołaj
!!!COM-rismID: pe30013343
!!!CDT: ~1535->1591/04/30
!!!CNT: Polish
!!!GTL: Melodiae na psalterz polski
!!!OTL: CXLII. Pana wołam, Pana proszę,
!!!OMV: 143
!!!ONB:
!!!PDT: 1580
!!!AGN: Sacred
!!!YEC: Copyright 2022 Narodowy Instytut Fryderyka Chopina (https://polishscores.org)
!!!YEM: License CC-BY-4.0 (https://creativecommons.org/licenses/by/4.0)
!!!SMS-siglum: PL-Wn
!!!SMS-shelfmark: SD XVI.Qu.273
!!!SMS-shelfwork: 001-143 G
!!!NIFC-rismSourceID: 990022100
!!!NIFC-rismChildID: 990022100
!!!NIFC-islandoraID: none
!!!URL-pdf-islandora:
!!!URL-scan: https://polona2.pl/item-view/9e614fd4-ba4f-44ae-9d17-4f78b947e64f?page=334 @EN{Scan on Polona} @PL{Skany w portalu Polona}
!!!IIIF: https://polona2.pl/iiif/item/Nzk3MTM4ODQ/manifest.json
!!!ONB-nifc: Melodiae na psalterz polski - UWAGA: druga wersja psalmu 142.
!!!AIN: 1 alto 1 bass 1 soprn 1 tenor
!!!key:
**kern	**text	**kern	**text	**kern	**text	**kern	**text
*part4	*	*part3	*	*part2	*	*part1	*
*staff4	*	*staff3	*	*staff2	*	*staff1	*
*oclefF3	*	*oclefC3	*	*oclefC2	*	*oclefG2	*
*I"BASSVS.	*	*I"TENOR.	*	*I"ALTVS.	*	*I"CANTVS.	*
*I'B	*	*I'T	*	*I'A	*	*I'S	*
*Ibass	*	*Itenor	*	*Ialto	*	*Isoprn	*
*ICvox	*	*ICvox	*	*ICvox	*	*ICvox	*
*clefF3	*	*clefC3	*	*clefC2	*	*clefG2	*
*k[b-]	*	*k[b-]	*	*k[b-]	*	*k[b-]	*
*d:	*	*d:	*	*d:	*	*d:	*
*M2/1	*	*M2/1	*	*M2/1	*	*M2/1	*
*met(C.|)	*	*met(C.|)	*	*met(C.|)	*	*met(C.|)	*
*MM200	*	*MM200	*	*MM200	*	*MM200	*
=1-	=1-	=1-	=1-	=1-	=1-	=1-	=1-
!LO:TX:t=P:znaki:problem= jeszcze BB-	!	!	!	!	!	!	!
1D\	PA-	1F/	PA-	1A/	PA-	1d/	PA-
2GG/	-ná	4.G/	-ná	2.d/	-ná	2b-/	-ná
.	.	8A/	.	.	.	.	.
2G\	wo-	4B-/	wo-	.	.	2b-/	wo-
.	.	4G/	-łam/	4e/	.	.	.
=2-	=2-	=2-	=2-	=2-	=2-	=2-	=2-
4.A\	.	4.c/	pá-	4f\	wo-	4a/	-łam/
.	.	.	.	4e/	-łam/	4.cc\	pá-
8G\	-łam/	8B-/	.	.	.	.	.
2F/	pá-	2A/	-ná	4.f\	pá-	.	.
.	.	.	.	.	.	8b-/	.
.	.	.	.	.	.	2a/	-ná
.	.	.	.	8e/	-ná	.	.
4G\	-ná	2B-/	pro-	4.d/	pro-	.	.
4GG/	pro-	.	.	.	.	4g/	pro-
.	.	.	.	8e/	.	.	.
2D/	-ßę/	2A/	-ßę/	4.f\	-ßę/	2a/	-ßę/
.	.	.	.	8g\	.	.	.
=3-	=3-	=3-	=3-	=3-	=3-	=3-	=3-
2D/	Rę-	2f\	Rę-	2a\	Rę-	1dd\	Rę-
2G\	-ce	2g\	-ce	2b-\	-ce	.	.
4.d\	ſwé	4.f\	ſwé	4b-\	ſwé	2dd\	-ce
.	.	.	.	4.a\	.	.	.
8c\	.	8e\	.	.	.	.	.
4.B-\	k nie-	4.d\	k nie-	.	.	4dd\	ſwé
.	.	.	.	8g\	.	.	.
.	.	.	.	4f\	k nie-	4dd\	k nie-
8A\	.	8c/	.	.	.	.	.
=4-	=4-	=4-	=4-	=4-	=4-	=4-	=4-
4G\	-mu	4B-/	-mu	4e/	-mu	4ee\	-mu
4F\	wy-	2A/	wy-	2d/	wy-	4ff\	wy-
2E/	-no-	.	.	.	.	2gg\	-no-
!	!	!	!	!LO:SIC:v:o=4c/	!	!	!
.	.	4G/	-no-	4c#/	-no-	.	.
*custos:D	*	*custos:A	*	*custos:f	*	*custos:ff	*
=-	=-	=-	=-	=-	=-	=-	=-
!!!pageoriginal
2D/	-ßę:	2A/	-ßę:	2d/	-ßę:	2ff\	-ßę:
2B-\	Przed	2d\	Przed	2f\	Przed	4dd\	Przed
.	.	.	.	.	.	2ff\	nim
=5-	=5-	=5-	=5-	=5-	=5-	=5-	=5-
4F/	nim	4c/	nim	4f\	nim	.	.
4C/	krzy(w-	4c/	krzy(w-	4g\	krzy(w-	4ee\	krzy(w-
2G\	-dę)	2B-/	-dę)	4.g\	-dę)	2dd\	-dę)
.	.	.	.	8f\	.	.	.
!	!	!	!	!LO:SIC:v:o=4d/	!	!	!
4A\	ſwą	4c/	ſwą	4e/	ſwą	4cc\	ſwą
4F/	prze-	2A/	prze-	4f\	prze-	4dd\	prze-
2G\	-(kła-	.	.	4.d/	-(kła-	2b-/	-(kła-
.	.	4G/	-(kła-	.	.	.	.
.	.	.	.	8e/	.	.	.
=6-	=6-	=6-	=6-	=6-	=6-	=6-	=6-
2D/	-dam)	2A/	-dam)/	2f\	-dam)	2a/	-dam)/
4D/	Je-	4f\	Je-	4d/	Je-	4a/	Je-
2C/	-(mu)	2e\	-(mu)	2g\	-mu	2cc\	-(mu)
4C/	żal	4e\	żál	4g\	żal	4cc\	żal
!	!	!	!	!	!	!LO:TX:a:t=P:problem=♮ below	!
!	!	!	!	!	!	!LO:N:acc=#	!
2G\	ſwóy	2.d\	ſwóy	2g\	ſwóy	2bn/	ſwóy
=7-	=7-	=7-	=7-	=7-	=7-	=7-	=7-
!LO:TX:a:t=P:problem=# below	!	!	!	!	!	!LO:TX:t=P:problem=brak 2dd	!
2F#X/	o-	.	.	2a\	o-	2dd\yy	o-
.	.	4c/	o-	.	.	.	.
2G\	-po-	2B-/	-po-	4g\	-po-	1dd	opo-
.	.	.	.	4e\	.	.	.
!	!	!	!	!LO:SIC:v:o=4f\	!	!	!
1D\	-wiá-	1A/	-wiá-	4f#\	.	.	.
.	.	.	.	2g\	.	.	.
.	.	.	.	.	.	2a/	-wiá-
!	!	!	!	!LO:SIC:v:o=4f\	!	!	!
.	.	.	.	4f#\	-wiá-	.	.
=8-	=8-	=8-	=8-	=8-	=8-	=8-	=8-
!	!	!	!	!	!	!LO:N:acc=#	!
0G\l	-dam.	0G/l	-dam.	0g\l	-dam.	0bni\l	-dam.
==	==	==	==	==	==	==	==
*-	*-	*-	*-	*-	*-	*-	*-
!!!system-decoration: [(s1,s2,s3,s4)]
!!!RDF**kern: i = editorial accidental
!!!RDF**kern: l = terminal long
!!!ENC: Katarzyna Serwa
!!!END: 2021-12-24
!!!EED: Jacek Iwaszko
!!!EEV: 2021-11-29
!!!ENC-iiif: Craig Stuart Sapp
!!!END: 2021-12-07
